svg/fluentui-system-icons/ic_fluent_document_arrow_up_20_regular.svg

<svg width="20" height="20" viewBox="0 0 20 20" fill="none" xmlns="http://www.w3.org/2000/svg">
<path d="M6 2C4.89543 2 4 2.89543 4 4V9.20703C4.32228 9.11588 4.65659 9.05337 5 9.02242V4C5 3.44772 5.44772 3 6 3H10V6.5C10 7.32843 10.6716 8 11.5 8H15V16C15 16.5523 14.5523 17 14 17H10.4003C10.2174 17.3578 9.99647 17.6929 9.74284 18H14C15.1046 18 16 17.1046 16 16V7.41421C16 7.01639 15.842 6.63486 15.5607 6.35355L11.6464 2.43934C11.3651 2.15804 10.9836 2 10.5858 2H6ZM14.7929 7H11.5C11.2239 7 11 6.77614 11 6.5V3.20711L14.7929 7ZM5.5 19C7.98528 19 10 16.9853 10 14.5C10 12.0147 7.98528 10 5.5 10C3.01472 10 1 12.0147 1 14.5C1 16.9853 3.01472 19 5.5 19ZM7.85353 14.1465C8.04879 14.3418 8.04879 14.6583 7.85353 14.8536C7.65826 15.0489 7.34168 15.0489 7.14642 14.8536L5.99997 13.7072L5.99997 16.5001C5.99997 16.7762 5.77612 17.0001 5.49997 17.0001C5.22383 17.0001 4.99997 16.7762 4.99997 16.5001L4.99997 13.7072L3.85353 14.8536C3.65826 15.0489 3.34168 15.0489 3.14642 14.8536C2.95116 14.6583 2.95116 14.3418 3.14642 14.1465L5.14642 12.1465C5.19436 12.0986 5.24961 12.0624 5.30858 12.038C5.36666 12.0139 5.43027 12.0005 5.49697 12.0001L5.49997 12.0001L5.50297 12.0001C5.56967 12.0005 5.63328 12.0139 5.69136 12.038C5.74947 12.062 5.80396 12.0975 5.8514 12.1444L5.85392 12.1469L7.85353 14.1465Z" fill="#212121"/>
</svg>

<svg xmlns="http://www.w3.org/2000/svg" width="20" height="20"><path d="M6 2a2 2 0 0 0-2 2v5.207a5.48 5.48 0 0 1 1-.185V4a1 1 0 0 1 1-1h4v3.5A1.5 1.5 0 0 0 11.5 8H15v8a1 1 0 0 1-1 1h-3.6a5.507 5.507 0 0 1-.657 1H14a2 2 0 0 0 2-2V7.414a1.5 1.5 0 0 0-.44-1.06l-3.914-3.915A1.5 1.5 0 0 0 10.586 2H6Zm8.793 5H11.5a.5.5 0 0 1-.5-.5V3.207L14.793 7ZM5.5 19a4.5 4.5 0 1 0 0-9 4.5 4.5 0 0 0 0 9Zm2.354-4.854a.5.5 0 1 1-.708.708L6 13.707V16.5a.5.5 0 0 1-1 0v-2.793l-1.146 1.147a.5.5 0 1 1-.708-.707l2-2A.5.5 0 0 1 5.497 12h.006a.498.498 0 0 1 .348.144l.003.003 2 2Z"/></svg>
